X: 1
T: Arkansas Traveler
%O: from Viola Ruth
B: Lee Owens "Advanced Square Dance Figures of the West and Southwest" p.45
R: reel
Z: 2010 John Chambers <jc:trillian.mit.edu>
N: "Rolling"
M: 2/4
L: 1/16
%Q: 1/4= "134-132 M.M."
K: D
H[D4D4] |: "D"vDEFD B,2B,2 | "Rock"A,A,A,A, D2D2 | "A7"vEEEE F2F2 | vEFED B,2A,2 |
"D"vDEFD B,2B,2 | vA,A,A,A, D2D2 | "A7"vdcdA vBdAG |[1 "D"vFDEC D4 :|[2 "D"FDEC D2 ||
|: (ufg | "D"va)gfa gfeg | "A7"vfedf "A"e(cA2) | "A7"dcdf e2 ((3ABc | "A"vd)cdf "A7"e2(fg |
"D"a)gfa gfeg | "G"vfedf e(cA2) | "D"vdcdA vBdAG |[1 "D"vFDEC D2 :|[2 "D"FDEC D4 |]

%%sep 1 1 500

